pieces/chess7/nw.svg

<svg width="68" height="68" viewBox="0 0 68 68" fill="none" xmlns="http://www.w3.org/2000/svg">
<path d="M24.848 39.728C24.592 40.1973 24.656 40.624 25.04 41.008C25.424 41.392 25.36 41.8827 24.848 42.48C24.3787 43.1627 23.504 44.08 22.224 45.232C20.9867 46.384 19.92 47.152 19.024 47.536C17.5733 48.3893 16.08 48.4533 14.544 47.728C13.776 47.344 12.816 46.5973 11.664 45.488C10.5547 44.3787 9.78667 43.4827 9.36 42.8C8.848 42.1173 8.656 41.5413 8.784 41.072C8.912 40.6027 8.93333 40.048 8.848 39.408C8.848 38.896 8.72 38.5333 8.464 38.32C8.208 38.064 8.336 37.232 8.848 35.824C9.36 34.544 10.448 32.432 12.112 29.488C13.776 26.544 14.8427 24.368 15.312 22.96C15.7813 21.68 15.696 21.104 15.056 21.232C14.4587 21.3173 14.288 21.0187 14.544 20.336C14.8 19.568 15.2693 18.544 15.952 17.264C16.6347 15.9413 17.2533 14.96 17.808 14.32C18.4053 13.7227 19.024 13.488 19.664 13.616C20.3467 13.7013 20.944 13.3173 21.456 12.464C21.9253 11.6533 22.3733 10.3947 22.8 8.688C23.2693 6.98133 23.76 5.424 24.272 4.016C24.912 5.33867 25.5947 6.59733 26.32 7.792C27.0453 8.98667 27.792 9.73333 28.56 10.032C30.48 9.30667 32.784 9.136 35.472 9.52C39.312 10.032 42.1493 10.8 43.984 11.824C45.8187 12.8053 48.016 14.8747 50.576 18.032C51.5573 19.2693 52.3467 20.592 52.944 22C53.5413 23.3653 54.0747 24.8587 54.544 26.48C55.0133 28.1013 55.376 29.9573 55.632 32.048C55.9307 34.1387 56.144 36.016 56.272 37.68C56.272 39.472 56.208 41.136 56.08 42.672C55.9947 44.1653 55.9947 45.68 56.08 47.216V50.992C56.08 51.9307 56.2507 53.1893 56.592 54.768C56.8053 56.0907 57.232 57.5627 57.872 59.184C58.512 60.8053 59.1093 62.4053 59.664 63.984H19.472C18.9173 62.8747 18.7253 61.6587 18.896 60.336C18.896 59.4827 19.0027 58.4373 19.216 57.2C19.4293 55.9627 19.7707 54.7893 20.24 53.68C20.624 52.6987 21.136 51.76 21.776 50.864C22.416 49.9253 23.0987 49.0293 23.824 48.176C25.1893 46.0427 26.4693 44.336 27.664 43.056C28.688 41.904 29.776 40.8373 30.928 39.856C32.1227 38.8747 33.232 37.744 34.256 36.464C35.152 35.056 35.7067 33.8187 35.92 32.752C36.048 32.112 36.0267 31.2373 35.856 30.128C35.728 28.976 35.5573 28.4213 35.344 28.464C35.1733 28.5493 34.832 29.3387 34.32 30.832C33.808 32.3253 33.3173 33.328 32.848 33.84C32.3787 34.5653 31.8667 35.0773 31.312 35.376C30.8 35.632 30.352 35.888 29.968 36.144C29.456 36.4 29.0507 36.528 28.752 36.528C28.496 36.528 28.176 36.656 27.792 36.912C27.3227 37.2533 26.768 37.7013 26.128 38.256C25.5307 38.768 25.104 39.2587 24.848 39.728Z" fill="black"/>
<path fill-rule="evenodd" clip-rule="evenodd" d="M21.995 61.133C21.733 60.444 21.779 58.977 22.115 57.283L22.412 55.783L23.615 55.879C25.53 56.029 30.568 56.327 31.269 56.329C31.855 56.332 32.083 56.524 33.999 58.627C35.36 60.12 36.344 61.038 36.818 61.257C37.538 61.589 37.472 61.592 29.858 61.596L22.172 61.6L21.995 61.133ZM38.909 61.285C39.259 61.116 40.568 59.984 41.818 58.768L44.09 56.558L48.797 56.255C51.386 56.089 53.534 55.983 53.57 56.019C53.63 56.079 54.17 57.859 54.977 60.645L55.253 61.6L46.763 61.596C38.666 61.592 38.302 61.577 38.909 61.285ZM36.272 56.509L34.64 54.87L36.318 53.192L37.996 51.514L39.626 53.136L41.256 54.759L39.75 56.396C38.922 57.296 38.167 58.059 38.073 58.09C37.979 58.122 37.168 57.41 36.271 56.509H36.272Z" fill="white"/>
<path fill-rule="evenodd" clip-rule="evenodd" d="M41.889 51.137C39.206 48.263 38.129 47.693 36.743 48.41C36.462 48.555 35.298 49.667 34.157 50.88L32.082 53.086L27.995 52.774C25.748 52.602 23.882 52.439 23.85 52.411C23.818 52.384 24.791 50.984 26.013 49.299C27.769 46.878 28.943 45.513 31.623 42.782C37.216 37.082 38.75 34.482 38.491 31.145C38.265 28.23 36.185 23.726 34.457 22.408C33.74 21.861 32.08 21.53 30.884 21.694C29.543 21.879 29.693 22.27 31.59 23.537C33.62 24.893 33.792 25.217 33.354 26.85C32.94 28.392 31.984 30.684 31.22 31.963C30.72 32.799 30.415 33.074 29.357 33.64C28.66 34.011 27.886 34.319 27.636 34.322C27.021 34.331 26.326 34.788 24.831 36.166C23.545 37.35 22.545 38.7 22.545 39.25C22.545 39.418 22.668 39.657 22.818 39.782C23.533 40.376 22.818 41.438 20.269 43.565C19.336 44.345 18.16 45.206 17.657 45.48L16.741 45.978L16.052 45.623C15.098 45.132 12.726 43.061 11.832 41.939C11.052 40.959 10.972 40.661 11.277 39.86C11.498 39.279 11.352 38.69 10.987 38.69C10.9171 38.6887 10.8505 38.6598 10.8018 38.6096C10.7531 38.5594 10.7262 38.4919 10.727 38.422C10.727 37.628 12.373 34.136 15.102 29.145C16.828 25.988 17.842 23.67 17.878 22.797C17.905 22.171 17.851 22.065 17.454 21.969C16.735 21.794 16.787 21.107 17.648 19.389C19.141 16.412 20.054 15.404 21.825 14.779C22.257 14.627 22.877 14.299 23.203 14.049C23.915 13.507 24.845 11.662 25.012 10.46L25.132 9.593L25.494 10.278C26.024 11.281 26.501 11.735 27.549 12.23C28.477 12.67 28.491 12.67 29.559 12.364C30.369 12.133 31.29 12.061 33.272 12.076C36.386 12.099 37.462 12.32 40.712 13.602C42.695 14.384 43.194 14.671 44.459 15.75C47.3 18.173 49.804 21.33 50.931 23.908C53.274 29.268 54.047 35.433 53.551 44.815C53.398 47.697 53.273 50.603 53.273 51.273V52.493L52.681 52.586C52.356 52.637 50.659 52.764 48.909 52.868C47.159 52.972 45.309 53.102 44.797 53.157L43.867 53.257L41.889 51.137ZM13.976 39.513C14.913 38.497 14.943 38.035 14.096 37.681C13.749 37.537 13.215 37.418 12.908 37.418C12.388 37.418 12.365 37.445 12.568 37.824C12.687 38.047 12.78 38.701 12.775 39.278C12.763 40.575 12.962 40.614 13.976 39.513ZM22.181 25.188C23.89 24.498 24.091 24.37 24.091 23.964C24.091 23.364 23.148 23.048 21.215 22.999C19.858 22.965 19.768 22.989 19.349 23.474C18.757 24.159 18.739 25.279 19.313 25.68C19.881 26.078 20.039 26.05 22.181 25.188V25.188Z" fill="white"/>
</svg>

<svg height="68" width="68" xmlns="http://www.w3.org/2000/svg"><path d="m24.848 39.728q-.384.704.192 1.28.576.576-.192 1.472-.704 1.024-2.624 2.752-1.856 1.728-3.2 2.304-2.176 1.28-4.48.192-1.152-.576-2.88-2.24-1.664-1.664-2.304-2.688-.768-1.024-.576-1.728.192-.704.064-1.664 0-.768-.384-1.088-.384-.384.384-2.496.768-1.92 3.264-6.336 2.496-4.416 3.2-6.528.704-1.92-.256-1.728-.896.128-.512-.896.384-1.152 1.408-3.072 1.024-1.984 1.856-2.944.896-.896 1.856-.704 1.024.128 1.792-1.152.704-1.216 1.344-3.776.704-2.56 1.472-4.672.96 1.984 2.048 3.776 1.088 1.792 2.24 2.24 2.88-1.088 6.912-.512 5.76.768 8.512 2.304 2.752 1.472 6.592 6.208 1.472 1.856 2.368 3.968.896 2.048 1.6 4.48.704 2.432 1.088 5.568.448 3.136.64 5.632 0 2.688-.192 4.992-.128 2.24 0 4.544v3.776q0 1.408.512 3.776.32 1.984 1.28 4.416.96 2.432 1.792 4.8h-40.192q-.832-1.664-.576-3.648 0-1.28.32-3.136t1.024-3.52q.576-1.472 1.536-2.816.96-1.408 2.048-2.688 2.048-3.2 3.84-5.12 1.536-1.728 3.264-3.2 1.792-1.472 3.328-3.392 1.344-2.112 1.664-3.712.192-.96-.064-2.624-.192-1.728-.512-1.664-.256.128-1.024 2.368-.768 2.24-1.472 3.008-.704 1.088-1.536 1.536-.768.384-1.344.768-.768.384-1.216.384-.384 0-.96.384-.704.512-1.664 1.344-.896.768-1.28 1.472zm2.624 7.488-3.84 5.248 8.448.64 3.84-4.032q1.92-1.92 3.904 0l4.096 4.16 9.408-.64q0-3.264.256-7.744.32-4.544.192-6.976-.128-2.496-.512-5.44-.32-3.008-1.024-5.184-1.28-4.288-3.648-7.424-1.408-1.536-2.624-2.752-1.152-1.216-2.944-2.624-2.112-.896-3.968-1.6-1.792-.704-3.904-.832-3.904-.448-6.592.576-2.112-.768-2.688-1.664-.512-.896-.832-1.856 0 2.752-1.408 4.48-.704.832-1.984 1.216-1.216.32-1.984 1.216-.832.96-1.664 2.496-.768 1.472-1.152 2.432-.192 1.088.64 1.088.832-.064.128 1.856-.704 1.984-3.264 6.528-2.496 4.48-3.2 6.4-.768 1.984-.32 1.92.512-.064.512.512 0 .576-.32 1.088-.256.448.32 1.088.576.832 2.112 2.304 1.536 1.408 2.368 1.856.768.448.96.448.192-.064 1.152-.64.768-.384 2.56-1.92t2.368-2.368q.704-.896.064-1.28-.576-.448-.192-1.152.384-.768 1.6-1.92 1.216-1.216 1.92-1.792.768-.576 1.28-.512.576 0 1.152-.384t1.088-.512q.512-.192 1.088-.896.448-.64 1.088-1.984.704-1.408 1.088-2.496.192-.896.448-1.664.32-.832 0-1.536-.512-.768-2.112-1.664-1.6-.896-1.408-1.28.064-.32 1.792-.32t2.816.768q.768.768 1.792 2.496t1.408 3.072q1.088 3.2.512 5.376-.512 2.304-2.368 4.48-1.28 1.984-3.008 3.584t-3.456 3.328q-1.408 1.408-1.984 2.432zm-5.056 8.512q-.384 1.344-.64 3.008t.32 2.816h33.216l-1.664-5.696-9.728.64-4.096 4.096q-1.984 1.728-3.904 0l-3.968-4.288zm15.552-4.352-3.392 3.392 3.392 3.52 3.392-3.52zm-15.232-28.288q.64.256 1.024.32.448.064.32.768 0 .256-.576.448-.512.128-.96.32-.448.256-1.088.448-.576.192-.768.32-1.088.32-1.536-.192-.256-.256-.256-1.216.064-.32.448-.832.448-.512.896-.512 1.728 0 2.496.128zm-10.304 14.272q.576 0 1.344.192.768.192.96.576 0 .512-.832 1.472-.832.896-1.216.704 0-.192.128-.576.128-.384.064-.768 0-.96-.448-1.6z"/><g fill="#fff" fill-rule="evenodd"><path d="m21.995 61.133c-.262-.689-.216-2.156.12-3.85l.297-1.5 1.203.096c1.915.15 6.953.448 7.654.45.586.003.814.195 2.73 2.298 1.361 1.493 2.345 2.411 2.819 2.63.72.332.654.335-6.96.339l-7.686.004zm16.914.152c.35-.169 1.659-1.301 2.909-2.517l2.272-2.21 4.707-.303c2.589-.166 4.737-.272 4.773-.236.06.06.6 1.84 1.407 4.626l.276.955-8.49-.004c-8.097-.004-8.461-.019-7.854-.311zm-2.637-4.776-1.632-1.639 1.678-1.678 1.678-1.678 1.63 1.622 1.63 1.623-1.506 1.637c-.828.9-1.583 1.663-1.677 1.694-.094.032-.905-.68-1.802-1.581z"/><path d="m41.889 51.137c-2.683-2.874-3.76-3.444-5.146-2.727-.281.145-1.445 1.257-2.586 2.47l-2.075 2.206-4.087-.312c-2.247-.172-4.113-.335-4.145-.363-.032-.027.941-1.427 2.163-3.112 1.756-2.421 2.93-3.786 5.61-6.517 5.593-5.7 7.127-8.3 6.868-11.637-.226-2.915-2.306-7.419-4.034-8.737-.717-.547-2.377-.878-3.573-.714-1.341.185-1.191.576.706 1.843 2.03 1.356 2.202 1.68 1.764 3.313-.414 1.542-1.37 3.834-2.134 5.113-.5.836-.805 1.111-1.863 1.677-.697.371-1.471.679-1.721.682-.615.009-1.31.466-2.805 1.844-1.286 1.184-2.286 2.534-2.286 3.084 0 .168.123.407.273.532.715.594 0 1.656-2.549 3.783-.933.78-2.109 1.641-2.612 1.915l-.916.498-.689-.355c-.954-.491-3.326-2.562-4.22-3.684-.78-.98-.86-1.278-.555-2.079.221-.581.075-1.17-.29-1.17a.265.265 0 0 1 -.26-.268c0-.794 1.646-4.286 4.375-9.277 1.726-3.157 2.74-5.475 2.776-6.348.027-.626-.027-.732-.424-.828-.719-.175-.667-.862.194-2.58 1.493-2.977 2.406-3.985 4.177-4.61.432-.152 1.052-.48 1.378-.73.712-.542 1.642-2.387 1.809-3.589l.12-.867.362.685c.53 1.003 1.007 1.457 2.055 1.952.928.44.942.44 2.01.134.81-.231 1.731-.303 3.713-.288 3.114.023 4.19.244 7.44 1.526 1.983.782 2.482 1.069 3.747 2.148 2.841 2.423 5.345 5.58 6.472 8.158 2.343 5.36 3.116 11.525 2.62 20.907-.153 2.882-.278 5.788-.278 6.458v1.22l-.592.093c-.325.051-2.022.178-3.772.282s-3.6.234-4.112.289l-.93.1zm-27.913-11.624c.937-1.016.967-1.478.12-1.832-.347-.144-.881-.263-1.188-.263-.52 0-.543.027-.34.406.119.223.212.877.207 1.454-.012 1.297.187 1.336 1.201.235zm8.205-14.325c1.709-.69 1.91-.818 1.91-1.224 0-.6-.943-.916-2.876-.965-1.357-.034-1.447-.01-1.866.475-.592.685-.61 1.805-.036 2.206.568.398.726.37 2.868-.492z"/></g></svg>
